Yaru++/emotes/16/face-confused.svg

<svg height="16" width="16" xmlns="http://www.w3.org/2000/svg"><g stroke-width="1.142857"><path d="m8 0a8 8 0 1 0 0 16 8 8 0 0 0 0-16zm-2.2857143 4.5714286c.6377143 0 1.1782857.5405714 1.1782857 1.1782857v1.1074286c0 .6377142-.5405714 1.1428571-1.1782857 1.1428571s-1.1428571-.5051429-1.1428571-1.1428571v-1.1085715c0-.6365714.5051428-1.1771428 1.1428571-1.1771428zm4.5714283 0c.637715 0 1.142857.5405714 1.142857 1.1782857v1.1074286c0 .6377142-.505142 1.1428571-1.142857 1.1428571-.637714 0-1.142857-.5051429-1.142857-1.1428571v-1.1085715c0-.6365714.505143-1.1771428 1.142857-1.1771428zm-6.1782854 4.3565714c.0731428-.0102857-.32.016-.2434286.0365714 5.1211429-.0365714 1.6571429 2.9497146 7.529143 3.0205716a.57828571.57828571 0 0 1 .392.714286.54171429.54171429 0 0 1 -.677714.393142c-5.6560004-.016-3.3222861-3.092571-7.0731433-3.021714a.57828571.57828571 0 0 1 -.3931428-.7142856.57142857.57142857 0 0 1 .4651428-.4285714z" fill="#fdc92b"/><path d="m8 0a8 8 0 0 0 -7.9866071 8.3482143 8 8 0 0 1 7.9866071-7.77678573 8 8 0 0 1 7.986607 7.65178573 8 8 0 0 0 -7.986607-8.2232143zm-3.4285714 6.8571429v.5714285c0 .6377143.5051428 1.1428572 1.1428571 1.1428572s1.1785714-.5051429 1.1785714-1.1428572v-.5714285c0 .6377142-.5408571 1.1428571-1.1785714 1.1428571s-1.1428571-.5051429-1.1428571-1.1428571zm4.5714284 0v.5714285c0 .6377143.505143 1.1428572 1.142857 1.1428572.637715 0 1.142857-.5051429 1.142857-1.1428572v-.5714285c0 .6377142-.505142 1.1428571-1.142857 1.1428571-.637714 0-1.142857-.5051429-1.142857-1.1428571zm-5.4508927 2.9397321a.57142857.57142857 0 0 0 -.0513393.1316964.57828571.57828571 0 0 0 .3928572.7142856c3.7508571-.07086 1.4176607 3.004089 7.0736608 3.020089a.54171429.54171429 0 0 0 .678571-.392857.57828571.57828571 0 0 0 -.05134-.439732.54171429.54171429 0 0 1 -.627232.261161c-5.6559991-.016-3.3228027-3.090947-7.0736598-3.020089a.57828571.57828571 0 0 1 -.3415179-.274554z" fill="#fff" opacity=".3"/><path d="m5.7142857 4c-.6377143 0-1.1428571.5397679-1.1428571 1.1763393v.5714286c0-.6365714.5051428-1.1763393 1.1428571-1.1763393s1.1785714.5408571 1.1785714 1.1785714v-.5714286c0-.6377143-.5408571-1.1785714-1.1785714-1.1785714zm4.5714283 0c-.637714 0-1.142857.5397679-1.142857 1.1763393v.5714286c0-.6365714.505143-1.1763393 1.142857-1.1763393.637715 0 1.142857.5408571 1.142857 1.1785714v-.5714286c0-.6377143-.505142-1.1785714-1.142857-1.1785714zm5.700893 3.6517857a8 8 0 0 1 -7.986607 7.7767853 8 8 0 0 1 -7.9866071-7.6517853 8 8 0 0 0 7.9866071 8.2232143 8 8 0 0 0 7.986607-8.3482143zm-12.0156248.7433036a.57142857.57142857 0 0 0 -.3303572.390625.57828571.57828571 0 0 0 .0513393.4397321.57142857.57142857 0 0 1 .2790179-.2589286c4.9504946.00985 1.59538 2.9475492 7.4218748 3.0178572a.57828571.57828571 0 0 1 .341518.274553.54171429.54171429 0 0 0 .05134-.131696.57828571.57828571 0 0 0 -.392857-.714286c-5.8264958-.070307-2.4713812-3.0080105-7.4218758-3.0178567z" opacity=".2"/></g></svg>

<?xml version="1.0" encoding="UTF-8" standalone="no"?>
<svg
   xmlns:dc="http://purl.org/dc/elements/1.1/"
   xmlns:cc="http://creativecommons.org/ns#"
   xmlns:rdf="http://www.w3.org/1999/02/22-rdf-syntax-ns#"
   xmlns:svg="http://www.w3.org/2000/svg"
   xmlns="http://www.w3.org/2000/svg"
   xmlns:sodipodi="http://sodipodi.sourceforge.net/DTD/sodipodi-0.dtd"
   xmlns:inkscape="http://www.inkscape.org/namespaces/inkscape"
   width="16"
   height="16"
   version="1.1"
   id="svg4"
   sodipodi:docname="face-confused.svg"
   inkscape:version="0.92.4 (5da689c313, 2019-01-14)">
  <metadata
     id="metadata10">
    <rdf:RDF>
      <cc:Work
         rdf:about="">
        <dc:format>image/svg+xml</dc:format>
        <dc:type
           rdf:resource="http://purl.org/dc/dcmitype/StillImage" />
      </cc:Work>
    </rdf:RDF>
  </metadata>
  <defs
     id="defs8" />
  <sodipodi:namedview
     pagecolor="#ffffff"
     bordercolor="#666666"
     borderopacity="1"
     objecttolerance="10"
     gridtolerance="10"
     guidetolerance="10"
     inkscape:pageopacity="0"
     inkscape:pageshadow="2"
     inkscape:window-width="1920"
     inkscape:window-height="1016"
     id="namedview6"
     showgrid="false"
     inkscape:zoom="59.928571"
     inkscape:cx="8.0000001"
     inkscape:cy="8.0000001"
     inkscape:window-x="0"
     inkscape:window-y="27"
     inkscape:window-maximized="1"
     inkscape:current-layer="svg4" />
  <path
     d="M 8,0 A 8,8 0 1 0 8,16 8,8 0 0 0 8,0 Z M 5.7142857,4.5714286 C 6.352,4.5714286 6.8925714,5.112 6.8925714,5.7497143 V 6.8571429 C 6.8925714,7.4948571 6.352,8 5.7142857,8 5.0765714,8 4.5714286,7.4948571 4.5714286,6.8571429 V 5.7485714 c 0,-0.6365714 0.5051428,-1.1771428 1.1428571,-1.1771428 z m 4.5714283,0 c 0.637715,0 1.142857,0.5405714 1.142857,1.1782857 V 6.8571429 C 11.428571,7.4948571 10.923429,8 10.285714,8 9.648,8 9.142857,7.4948571 9.142857,6.8571429 V 5.7485714 C 9.142857,5.112 9.648,4.5714286 10.285714,4.5714286 Z M 4.1074286,8.928 C 4.1805714,8.9177143 3.7874286,8.944 3.864,8.9645714 8.9851429,8.928 5.5211429,11.914286 11.393143,11.985143 a 0.57828571,0.57828571 0 0 1 0.392,0.714286 0.54171429,0.54171429 0 0 1 -0.677714,0.393142 C 5.4514286,13.076571 7.7851429,10 4.0342857,10.070857 A 0.57828571,0.57828571 0 0 1 3.6411429,9.3565714 0.57142857,0.57142857 0 0 1 4.1062857,8.928 Z"
     id="path2"
     style="fill:#fdc92b;fill-opacity:1;stroke-width:1.14285719"
     inkscape:connector-curvature="0" />
  <path
     style="opacity:0.3;fill:#ffffff;fill-opacity:1;stroke-width:1.14285719"
     d="M 8,0 A 8,8 0 0 0 0.0133929,8.3482143 8,8 0 0 1 8,0.57142857 8,8 0 0 1 15.986607,8.2232143 8,8 0 0 0 8,0 Z M 4.5714286,6.8571429 v 0.5714285 c 0,0.6377143 0.5051428,1.1428572 1.1428571,1.1428572 0.6377143,0 1.1785714,-0.5051429 1.1785714,-1.1428572 V 6.8571429 C 6.8928571,7.4948571 6.352,8 5.7142857,8 5.0765714,8 4.5714286,7.4948571 4.5714286,6.8571429 Z m 4.5714284,0 v 0.5714285 c 0,0.6377143 0.505143,1.1428572 1.142857,1.1428572 0.637715,0 1.142857,-0.5051429 1.142857,-1.1428572 V 6.8571429 C 11.428571,7.4948571 10.923429,8 10.285714,8 9.648,8 9.142857,7.4948571 9.142857,6.8571429 Z M 3.6919643,9.796875 A 0.57142857,0.57142857 0 0 0 3.640625,9.9285714 0.57828571,0.57828571 0 0 0 4.0334822,10.642857 c 3.7508571,-0.07086 1.4176607,3.004089 7.0736608,3.020089 a 0.54171429,0.54171429 0 0 0 0.678571,-0.392857 0.57828571,0.57828571 0 0 0 -0.05134,-0.439732 0.54171429,0.54171429 0 0 1 -0.627232,0.261161 C 5.4511429,13.075518 7.7843393,10.000571 4.0334822,10.071429 A 0.57828571,0.57828571 0 0 1 3.6919643,9.796875 Z"
     id="path823"
     inkscape:connector-curvature="0" />
  <path
     style="opacity:0.2;fill:#000000;fill-opacity:1;stroke-width:1.14285719"
     d="M 5.7142857,4 C 5.0765714,4 4.5714286,4.5397679 4.5714286,5.1763393 v 0.5714286 c 0,-0.6365714 0.5051428,-1.1763393 1.1428571,-1.1763393 0.6377143,0 1.1785714,0.5408571 1.1785714,1.1785714 V 5.1785714 C 6.8928571,4.5408571 6.352,4 5.7142857,4 Z M 10.285714,4 C 9.648,4 9.142857,4.5397679 9.142857,5.1763393 v 0.5714286 c 0,-0.6365714 0.505143,-1.1763393 1.142857,-1.1763393 0.637715,0 1.142857,0.5408571 1.142857,1.1785714 V 5.1785714 C 11.428571,4.5408571 10.923429,4 10.285714,4 Z m 5.700893,3.6517857 A 8,8 0 0 1 8,15.428571 8,8 0 0 1 0.0133929,7.7767857 8,8 0 0 0 8,16 8,8 0 0 0 15.986607,7.6517857 Z M 3.9709822,8.3950893 A 0.57142857,0.57142857 0 0 0 3.640625,8.7857143 0.57828571,0.57828571 0 0 0 3.6919643,9.2254464 0.57142857,0.57142857 0 0 1 3.9709822,8.9665178 c 4.9504946,0.00985 1.59538,2.9475492 7.4218748,3.0178572 a 0.57828571,0.57828571 0 0 1 0.341518,0.274553 0.54171429,0.54171429 0 0 0 0.05134,-0.131696 0.57828571,0.57828571 0 0 0 -0.392857,-0.714286 C 5.5663622,11.342639 8.9214768,8.4049355 3.9709822,8.3950893 Z"
     id="path828"
     inkscape:connector-curvature="0" />
</svg>
